img/collab-bg.svg

<svg fill="none" height="480" viewBox="0 0 720 480" width="720" xmlns="http://www.w3.org/2000/svg" xmlns:xlink="http://www.w3.org/1999/xlink"><clipPath id="a"><path d="m0 0h720v480h-720z"/></clipPath><mask id="b" height="480" maskUnits="userSpaceOnUse" width="1440" x="-273" y="0"><path d="m-273 0h1440v480h-1440z" fill="#d9d9d9"/></mask><g clip-path="url(#a)"><path d="m0 0h720v480h-720z" fill="#18584a"/><g mask="url(#b)"><path d="m1278 490.213c0-73.541-14.48-146.361-42.63-214.303-28.14-67.942-69.39-129.676-121.39-181.6771-52-52.0008-113.74-93.250051-181.677-121.3927-67.943-28.1426-140.763-42.6274-214.303-42.6274v560.0002z" fill="#22312d"/><path d="m1084 490.213c0-73.541-14.48-146.361-42.63-214.303-28.14-67.942-69.389-129.676-121.39-181.6771-52.001-52.0008-113.735-93.250051-181.677-121.3927-67.943-28.1426-140.763-42.6274-214.303-42.6274v560.0002z" fill="#b8e7dd"/><path d="m906 490.213c0-73.541-14.485-146.361-42.627-214.303-28.143-67.942-69.392-129.676-121.393-181.6771-52.001-52.0008-113.735-93.250051-181.677-121.3927-67.942-28.1426-140.763-42.6274-214.303-42.6274v560.0002z" fill="#faa237"/><path d="m705 490.213c0-73.541-14.485-146.361-42.628-214.303-28.142-67.942-69.392-129.676-121.392-181.6771-52.001-52.0008-113.735-93.250051-181.677-121.3927-67.943-28.1426-140.763-42.6274-214.303-42.6274v560.0002z" fill="#e7c1fc"/><path d="m503.999 490.213c0-73.541-14.484-146.361-42.627-214.303s-69.392-129.676-121.393-181.6771c-52.001-52.0008-113.734-93.250051-181.677-121.3927-67.9421-28.1426-140.7622-42.6274-214.3025-42.6274v560.0002z" fill="#090575"/><path d="m287 490.213c0-73.541-14.485-146.361-42.628-214.303-28.142-67.942-69.391-129.676-121.392-181.6771-52.001-52.0008-113.735-93.250051-181.6773-121.3927-67.9427-28.1426-140.7627-42.6274-214.3027-42.6274v560.0002z" fill="#18584a"/></g></g></svg>

<svg width="720" height="480" viewBox="0 0 720 480" fill="none" xmlns="http://www.w3.org/2000/svg">
<g clip-path="url(#clip0_1009_1795)">
<rect width="720" height="480" fill="#18584A"/>
<mask id="mask0_1009_1795" style="mask-type:alpha" maskUnits="userSpaceOnUse" x="-273" y="0" width="1440" height="480">
<rect x="-273" width="1440" height="480" fill="#D9D9D9"/>
</mask>
<g mask="url(#mask0_1009_1795)">
<path d="M1278 490.213C1278 416.672 1263.52 343.852 1235.37 275.91C1207.23 207.968 1165.98 146.234 1113.98 94.2329C1061.98 42.2321 1000.24 0.982849 932.303 -27.1598C864.36 -55.3024 791.54 -69.7872 718 -69.7872V490.213H1278Z" fill="#22312D"/>
<path d="M1084 490.213C1084 416.672 1069.52 343.852 1041.37 275.91C1013.23 207.968 971.981 146.234 919.98 94.2329C867.979 42.2321 806.245 0.982849 738.303 -27.1598C670.36 -55.3024 597.54 -69.7872 524 -69.7872V490.213H1084Z" fill="#B8E7DD"/>
<path d="M906 490.213C906 416.672 891.515 343.852 863.373 275.91C835.23 207.968 793.981 146.234 741.98 94.2329C689.979 42.2321 628.245 0.982849 560.303 -27.1598C492.361 -55.3024 419.54 -69.7872 346 -69.7872V490.213H906Z" fill="#FAA237"/>
<path d="M705 490.213C705 416.672 690.515 343.852 662.372 275.91C634.23 207.968 592.98 146.234 540.98 94.2329C488.979 42.2321 427.245 0.982849 359.303 -27.1598C291.36 -55.3024 218.54 -69.7872 145 -69.7872V490.213H705Z" fill="#E7C1FC"/>
<path d="M503.999 490.213C503.999 416.672 489.515 343.852 461.372 275.91C433.229 207.968 391.98 146.234 339.979 94.2329C287.978 42.2321 226.245 0.982849 158.302 -27.1598C90.3599 -55.3024 17.5398 -69.7872 -56.0005 -69.7872V490.213H503.999Z" fill="#090575"/>
<path d="M287 490.213C287 416.672 272.515 343.852 244.372 275.91C216.23 207.968 174.981 146.234 122.98 94.2329C70.979 42.2321 9.245 0.982849 -58.6973 -27.1598C-126.64 -55.3024 -199.46 -69.7872 -273 -69.7872V490.213H287Z" fill="#18584A"/>
</g>
</g>
<defs>
<clipPath id="clip0_1009_1795">
<rect width="720" height="480" fill="white"/>
</clipPath>
</defs>
</svg>
